X: 31512
T: Paddy's Green Shamrock Shore
R: waltz
M: 3/4
K: Dmajor
A2|"A"e3f g2|e4 A2|e3c e2|"D"d2c2A2|"G"G3F G2|"A"A4 A2|
A6-|A4 ag|"D"f3e d2|"A"e3f g2|"A7"a3g f2|e4 a2|g3fe2|
"D"dA3 B2|"G"G6-|G4 a2|"D"f3e d2|"A"e3f g2|"A7"a3g f2|
e4 a2|"G"g3f e2|"D"dA3B2|"G"G6-|G4 A2|"A7"e3f g2|
e4A2|"A"e3c e2|"D"d2c2A2|"G"G3F G2|"D"A4 A2|"A"A6||

